T: Hawthorn Bush, The
M: 4/4
L: 1/8
K: Gmaj
|: G2 Bd e2 dB | GABG AGEF | G2 Bd e2 dB |[1 cAdA cAFA |[2 cABG EG G2 || |: f<aag fdde | fdag fd d2 |
